pix/i/completion-auto-enabled.svg

<!DOCTYPE svg PUBLIC "-//W3C//DTD SVG 1.1//EN" "http://www.w3.org/Graphics/SVG/1.1/DTD/svg11.dtd" [
	<!ENTITY ns_flows "http://ns.adobe.com/Flows/1.0/">
]><svg xmlns="http://www.w3.org/2000/svg" width="16" height="16" viewBox="0 0 16 16" preserveAspectRatio="xMinYMid meet" overflow="visible"><path d="M10 0v2H6V0h4zm1 2h1c.4 0 .8.1 1.1.3.3-.3.8-.4 1.2-.4.5 0 1 .2 1.4.6l.3.3V2c0-1.1-.9-2-2-2h-3v2zm3 8h2V6.4l-2 2V10zm0 1v1c0 1.1-.9 2-2 2h-1v2h3c1.1 0 2-.9 2-2v-3h-2zm-4 5v-2H6v2h4zm-5-2H4c-1.1 0-2-.9-2-2v-1H0v3c0 1.1.9 2 2 2h3v-2zm-5-4h2V6H0v4zm2-5V4c0-1.1.9-2 2-2h1V0H2C.9 0 0 .9 0 2v3h2zm13.7-1.1l-.7-.7c-.4-.4-1-.4-1.4 0l-6 6L5.4 7c-.4-.3-1-.3-1.4 0l-.7.7c-.4.4-.4 1 0 1.4l3.6 3.6c.4.4 1 .4 1.4 0l7.4-7.4c.4-.4.4-1 0-1.4z" fill="#999"/></svg>

<svg xmlns="http://www.w3.org/2000/svg" viewBox="0 0 16 16" preserveAspectRatio="xMinYMid meet"><path d="M10,0V2H6V0Zm1,2h1a2,2,0,0,1,1.1.3,1.75,1.75,0,0,1,1.2-.4,2,2,0,0,1,1.4.6l.3.3V2a2,2,0,0,0-2-2H11Zm3,8h2V6.4l-2,2Zm0,1v1a2,2,0,0,1-2,2H11v2h3a2,2,0,0,0,2-2V11Zm-4,5V14H6v2ZM5,14H4a2,2,0,0,1-2-2V11H0v3a2,2,0,0,0,2,2H5ZM0,10H2V6H0ZM2,5V4A2,2,0,0,1,4,2H5V0H2A2,2,0,0,0,0,2V5ZM15.7,3.9,15,3.2a1,1,0,0,0-1.4,0l-6,6L5.4,7A1.2,1.2,0,0,0,4,7l-.7.7a1,1,0,0,0,0,1.4l3.6,3.6a1,1,0,0,0,1.4,0l7.4-7.4A1,1,0,0,0,15.7,3.9Z" fill="#949494"/></svg>
